X: 10432
T: MRS. SOUTAR OF PLAINS REEL
C: BY ALEX. DEAS
R: reel
B: K\"ohler's Violin Repository, v.1, 1885 p.43 #2
F: http://www.archive.org/details/klersviolinrepos01edin
Z: 2011 John Chambers <jc:trillian.mit.edu>
M: C|
L: 1/8
K: C
[|\
vGcBc dcBc | Bcdc AcGF | EGcB AFdc | Bdgf efdB | GcBc dcBc |
Bcdc AcGF | EGcB Aagf & x4 AFdf | ecdB c2(c || uf) | efga gefa | gcec Bdgf | egce
gceg | fdBG | c2(cf) | efga gefa | gcec Bdgf | efdB ce GE | Ff dB "_D.C."c2 c"_Fine."z |]

%%sep 2 1 500

